twotone/svg/unsubscribe.svg

<svg xmlns="http://www.w3.org/2000/svg" width="24" height="24"><path fill="none" d="M0 0h24v24H0V0z"/><g fill="currentColor"><path opacity=".3" d="M18.99 5H5l7 3.5z"/><path opacity=".3" d="M19 13.05V7l-7 3.5L5 7v8h10.35c.56-1.18 1.76-2 3.15-2 .17 0 .34.03.5.05z"/><path d="M20.99 14.04V5c0-1.1-.9-2-2-2H5c-1.1 0-2 .9-2 2v10c0 1.1.9 2 2 2h10.05c.28 1.92 2.1 3.35 4.18 2.93 1.34-.27 2.43-1.37 2.7-2.71.25-1.24-.16-2.39-.94-3.18zm-2-9.04L12 8.5 5 5h13.99zm-3.64 10H5V7l7 3.5L19 7v6.05c-.16-.02-.33-.05-.5-.05-1.39 0-2.59.82-3.15 2zm5.15 2h-4v-1h4v1z"/></g></svg>

<?xml version="1.0" encoding="utf-8"?>
<!-- Generator: Adobe Illustrator 19.1.0, SVG Export Plug-In . SVG Version: 6.00 Build 0)  -->
<svg version="1.1" xmlns="http://www.w3.org/2000/svg" xmlns:xlink="http://www.w3.org/1999/xlink" x="0px" y="0px" width="24px"
	 height="24px" viewBox="0 0 24 24" enable-background="new 0 0 24 24" xml:space="preserve">
<g id="Bounding_Boxes">
	<g id="ui_x5F_spec_x5F_header_copy_2">
	</g>
	<path fill="none" d="M0,0h24v24H0V0z"/>
</g>
<g id="Duotone" fill="currentColor">
	<g id="ui_x5F_spec_x5F_header_copy_3">
	</g>
	<g>
		<polygon opacity="0.3" points="18.99,5 18.99,5 5,5 12,8.5 		"/>
		<path opacity="0.3" d="M19,13.05V7l-7,3.5L5,7v8h10.35c0.56-1.18,1.76-2,3.15-2C18.67,13,18.84,13.03,19,13.05z"/>
		<path d="M20.99,14.04V5c0-1.1-0.9-2-2-2H5C3.9,3,3,3.9,3,5v10c0,1.1,0.9,2,2,2h10.05c0.28,1.92,2.1,3.35,4.18,2.93
			c1.34-0.27,2.43-1.37,2.7-2.71C22.18,15.98,21.77,14.83,20.99,14.04z M18.99,5L18.99,5L12,8.5L5,5H18.99z M15.35,15H5V7l7,3.5
			L19,7v6.05C18.84,13.03,18.67,13,18.5,13C17.11,13,15.91,13.82,15.35,15z M20.5,17h-4v-1h4V17z"/>
	</g>
</g>
</svg>
